X:1
T:Burg, 87.87
T:Burg, 87.87
T:Emily Swan Perkins, 1921
T:Public Domain Courtesy of the Cyber Hymnal™
C:Emily Swan Perkins, 1921
Z:Public Domain
Z:Courtesy of the Cyber Hymnal™
%%score ( 1 2 ) ( 3 4 )
L:1/8
Q:1/4=115
M:4/4
K:C
V:1 treble 
V:2 treble 
V:3 bass 
V:4 bass 
V:1
 [G,C]2 | [G,C]2 [B,D]2 [B,D]2 [CE]2 | [CF]2 (ED) !fermata![CE]2 [CE]2 | [CF]2 [CG]2 [CA]2 [FB]2 | %4
 [Fc]2 [Ec]4 [EG]2 | [Ec]2 [Dd]2 [DB]2 [EG]2 | [EA]2 [D^F]2 !fermata![DG]2 [B,G]2 | %7
 [Cc]2 [CG]2 [CA]2 (EF) | G4 !fermata![CG]2 |] %9
V:2
 x2 | x8 | x2 B,2 x4 | x8 | x8 | x8 | x8 | x6 C2 | (C2 B,2) x2 |] %9
V:3
 [C,E,]2 | [C,E,]2 [C,F,]2 [C,F,]2 [C,G,]2 | [F,,A,]2 [G,,G,]2 !fermata![C,G,]2 [C,G,]2 | %3
 [F,A,]2 [E,G,]2 [D,F,]2 [D,G,]2 | [C,G,]2 [C,G,]4 [C,C]2 | [A,C]2 [F,A,]2 [G,B,]2 [E,B,]2 | %6
 [C,A,]2 [D,A,]2 !fermata![G,B,]2 [F,G,]2 | [E,G,]2 [C,E,]2 F,2 (A,F,) | %8
 (D,2 F,2) !fermata![C,E,]2 |] %9
V:4
 x2 | x8 | x8 | x8 | x8 | x8 | x8 | x4 F,2 D,2 | G,,4 x2 |] %9

